X: 73
T: Exultet celum laudibus
N: Derived from Mar2049-Exultet_celum_laudibus.krn
C: Johannes Martini
%%abc-version 2.0
%%abcx-abcm2ps-target-version 5.9.1 (29 Sep 2008)
%%abc-creator hum2abc beta
%%abcx-conversion-date 2019/02/17 07:19:42
%%abc-edited-by Jesse Rodin
%%abc-edited-by Chris Gage 08-15-2014
%%abcx-initial-encoding-date 2014/10/06/
%%humdrum-veritas 773506545
%%humdrum-veritas-data 1844675926
%%linebreak <none>
%%barnumbers 0
L: 1/4
M: 2/1
Q: 1/2=120
V: 1 clef=treble
V: 2 clef=treble-8
V: 3 clef=bass
K: C
[V:1] z8 | 
[V:2] F4F4 | 
[V:3] z8 | 
[V:1] z8 | 
[V:2] G4F3G | 
[V:3] z8 | 
[V:1] F4F4 | 
[V:2] A2_B3AGF | 
[V:3] z8 | 
[V:1] G4F4 | 
[V:2] E3DF4 | 
[V:3] z4F,4 | 
[V:1] F4E2C2 | 
[V:2] D4C2E2 | 
[V:3] F,4G,4 | 
[V:1] D4C4 | 
[V:2] D2A3Bc2- | 
[V:3] F,4F,4 | 
[V:1] z4D4 | 
[V:2] c2BAB4 | 
[V:3] E,2C,2D,4 | 
[V:1] E3FG2A2- | 
[V:2] c4B2c2 | 
[V:3] C,4z4 | 
[V:1] A2F2G2E2- | 
[V:2] A4G3A | 
[V:3] D,4E,3F, | 
[V:1] EDCB,F2E2- | 
[V:2] B2c4B2- | 
[V:3] G,2A,4G,2 | 
[V:1] E2D2E4 | 
[V:2] B2A2B4 | 
[V:3] F,4E,4- | 
[V:1] G4A4 | 
[V:2] z2G4FE | 
[V:3] E,4z4 | 
[V:1] A4G4 | 
[V:2] F4z2g2- | 
[V:3] z4G,4 | 
[V:1] z4A4 | 
[V:2] g2fef4 | 
[V:3] A,4A,4 | 
[V:1] _B6AG | 
[V:2] z2G4FE | 
[V:3] G,4z4 | 
[V:1] AGFED2G2- | 
[V:2] F4z2d2- | 
[V:3] A,4B,4- | 
[V:1] G2^FEF4 | 
[V:2] d2cBc4 | 
[V:3] B,2A,G,A,4 | 
[V:1] G4z4 | 
[V:2] d2e4dc | 
[V:3] G,8 | 
[V:1] F4G4 | 
[V:2] dcBAG2FE | 
[V:3] z8 | 
[V:1] F4E4 | 
[V:2] D4C4 | 
[V:3] F,4G,4 | 
[V:1] A4G2F2 | 
[V:2] z2c4d2 | 
[V:3] F,4E,2D,2 | 
[V:1] G2E4D2 | 
[V:2] c2B4A2 | 
[V:3] E,4F,4 | 
[V:1] E4E4 | 
[V:2] B2c3BAG | 
[V:3] E,4z4 | 
[V:1] F4G4 | 
[V:2] A4G4 | 
[V:3] z4E,4 | 
[V:1] F3ED4 | 
[V:2] z2A2B2d2- | 
[V:3] F,4G,4 | 
[V:1] z2E2F2G2 | 
[V:2] d2c2dcBA | 
[V:3] F,2E,2D,4 | 
[V:1] E4D2E2- | 
[V:2] c4A2B2- | 
[V:3] z2E,2F,2G,2 | 
[V:1] EDC4B,2 | 
[V:2] BAG4F2 | 
[V:3] E,4D,4 | 
[V:1] C8 | 
[V:2] G6A2- | 
[V:3] C,8- | 
[V:1] z4G4 | 
[V:2] ABc3de2- | 
[V:3] C,8 | 
[V:1] G4F4 | 
[V:2] edcBA4 | 
[V:3] z8 | 
[V:1] G4z4 | 
[V:2] G2B3cd2- | 
[V:3] G,4G,4 | 
[V:1] A4B4 | 
[V:2] d2c2B2G2- | 
[V:3] F,4G,4 | 
[V:1] B2c4BA | 
[V:2] G2FEF2c2 | 
[V:3] z4A,4 | 
[V:1] G4E2F2 | 
[V:2] d2e4dc | 
[V:3] B,2C4B,A, | 
[V:1] G2E4D2 | 
[V:2] B4G2A2 | 
[V:3] G,4E,2F,2 | 
[V:1] E2G4F2- | 
[V:2] B4c2d2- | 
[V:3] G,2E,4D,2 | 
[V:1] F2E4D2 | 
[V:2] dcB4A2 | 
[V:3] E,2G,2F,4 | 
[V:1] E8 ||  
[V:2] B8 ||  
[V:3] E,8 ||  
[V:1] z8 | 
[V:2] F3GA4 | 
[V:3] F,4F,4 | 
[V:1] z4F4 | 
[V:2] _B4A3=B | 
[V:3] G,4F,4- | 
[V:1] F4G4 | 
[V:2] c2d2G2c2- | 
[V:3] F,4E,4 | 
[V:1] F8 | 
[V:2] c2BAB4 | 
[V:3] D,8 | 
[V:1] E4D4- | 
[V:2] c4G4 | 
[V:3] C,4z4 | 
[V:1] D4C4 | 
[V:2] F4G2A2- | 
[V:3] D,4E,2F,2- | 
[V:1] z4D4 | 
[V:2] A2G2A2B2- | 
[V:3] F,2E,2F,2G,2- | 
[V:1] E2F4E2 | 
[V:2] Bcd4B2 | 
[V:3] G,2D,2F,2G,2 | 
[V:1] F2G3AE2- | 
[V:2] c2d2edcB | 
[V:3] A,2G,2E,4 | 
[V:1] E2D2E4 | 
[V:2] A3GB4 | 
[V:3] F,4E,4 | 
[V:1] G4A2B2- | 
[V:2] z2c4B2 | 
[V:3] z8 | 
[V:1] BAB2c2B2 | 
[V:2] d4c2d2- | 
[V:3] G,4A,2B,2- | 
[V:1] G4A2G2 | 
[V:2] dcd2e2d2- | 
[V:3] B,A,B,2C2B,2 | 
[V:1] G4z2A2 | 
[V:2] d2g4^f2 | 
[V:3] G,4A,4 | 
[V:1] _B4A4 | 
[V:2] g4c4 | 
[V:3] G,4z2A,2 | 
[V:1] G4c4 | 
[V:2] z2G2A2F2 | 
[V:3] B,4A,4 | 
[V:1] B2A4G2- | 
[V:2] G2F4G2 | 
[V:3] G,2C4B,2 | 
[V:1] G2^F2G4 | 
[V:2] D4z2d2- | 
[V:3] A,4G,4 | 
[V:1] z8 | 
[V:2] d2c2B2e2- | 
[V:3] F,4G,4 | 
[V:1] F4G4 | 
[V:2] e2d2e4 | 
[V:3] F,4E,3D, | 
[V:1] F4E2D2 | 
[V:2] c4B2A2- | 
[V:3] A,4G,2F,2- | 
[V:1] A4G2F2- | 
[V:2] A2B2c2d2 | 
[V:3] F,2E,4D,2 | 
[V:1] FEE4D2 | 
[V:2] c2B4A2 | 
[V:3] E,2G,2F,4 | 
[V:1] E4z4 | 
[V:2] B4G2c2- | 
[V:3] E,4E,4 | 
[V:1] z8 | 
[V:2] c2d2e2d2- | 
[V:3] F,4G,2F,2 | 
[V:1] E4F4 | 
[V:2] d2^c2d4 | 
[V:3] E,4D,4 | 
[V:1] G2F2E4 | 
[V:2] B2A2G2c2- | 
[V:3] z4E,4 | 
[V:1] D4z4 | 
[V:2] c2B2A4 | 
[V:3] F,2G,4F,2 | 
[V:1] E4F2G2- | 
[V:2] B2c2A2G2- | 
[V:3] G,2C,2D,2E,2- | 
[V:1] G2F2G2C2 | 
[V:2] G2d2c2A2- | 
[V:3] E,2D,2E,2F,2- | 
[V:1] D2C4B,2 | 
[V:2] A2G4F2 | 
[V:3] F,2E,2D,4 | 
[V:1] C8 | 
[V:2] G4A4 | 
[V:3] C,4z4 | 
[V:1] z8 | 
[V:2] B2d3cBA | 
[V:3] G,4F,2G,2 | 
[V:1] z8 | 
[V:2] c2B2A4 | 
[V:3] A,2G,4^F,2 | 
[V:1] G4F2G2 | 
[V:2] G4D2E2 | 
[V:3] G,4z4 | 
[V:1] A2G4^F2 | 
[V:2] F2G2D4 | 
[V:3] z4A,4 | 
[V:1] G4z4 | 
[V:2] z4d4- | 
[V:3] G,2E,2F,2G,2- | 
[V:1] z4A4 | 
[V:2] d2e2f4 | 
[V:3] G,2F,E,D,4 | 
[V:1] G2E2F2G2- | 
[V:2] e2c2d2B2- | 
[V:3] E,4D,2E,2 | 
[V:1] G2FED3C | 
[V:2] B2AGA4 | 
[V:3] G,2A,2F,4 | 
[V:1] E8 |]  
[V:2] B8 |]  
[V:3] E,8 |]  



